icons/1_Primary/Netlify.svg

<svg width="1024" height="1024" fill="none" xmlns="http://www.w3.org/2000/svg"><g clip-path="url(#a)"><path d="M512 1024c282.77 0 512-229.23 512-512S794.77 0 512 0 0 229.23 0 512s229.23 512 512 512Z" fill="#96DFD3"/><path d="m626.9 433.7-.2-.1c-.1 0-.2-.1-.3-.2-.3-.3-.4-.8-.4-1.2l10.3-63.1 48.4 48.4-50.3 21.4c-.1.1-.3.1-.4.1h-.2c-.1 0-.1-.1-.3-.2-1.8-2.1-4.1-3.8-6.6-5.1Zm70.2-3.9 51.8 51.8c10.7 10.8 16.1 16.1 18.1 22.4.3.9.5 1.8.7 2.8L644 454.3c-.1 0-.1-.1-.2-.1-.5-.2-1.1-.4-1.1-.9s.6-.7 1.1-.9l.2-.1 53.1-22.5Zm68.5 93.5c-2.7 5-7.9 10.2-16.7 19.1l-58.4 58.3-75.4-15.7-.4-.1c-.7-.1-1.4-.2-1.4-.8-.6-6.3-3.7-12.1-8.7-15.9-.3-.3-.2-.8-.1-1.2v-.2l14.2-87.1.1-.3c.1-.7.2-1.4.8-1.4 6.1-.8 11.7-4 15.5-8.9.1-.1.2-.3.4-.4.4-.2.9 0 1.4.2l128.7 54.4Zm-88.5 90.9-96 96 16.4-100.9v-.1c0-.1 0-.3.1-.4.1-.3.5-.5.8-.6l.2-.1c3.6-1.5 6.8-3.9 9.3-6.9.3-.4.7-.7 1.2-.8h.4l67.6 13.8ZM560.9 730.4l-10.8 10.8-119.6-172.8c0-.1-.1-.1-.1-.2-.2-.3-.4-.5-.3-.8 0-.2.1-.4.3-.6l.1-.2c.4-.5.7-1.1 1-1.6l.3-.5c.2-.3.4-.6.7-.8.3-.1.7-.1 1 0L566 591c.4.1.7.2 1 .4.2.2.2.4.3.6 1.9 7.1 7 12.9 13.7 15.7.4.2.2.6 0 1-.1.2-.2.4-.2.6-1.8 10.3-16.1 97.6-19.9 121.1ZM538.3 753c-8 7.9-12.7 12.1-18 13.8-5.2 1.7-10.9 1.7-16.1 0-6.2-2-11.6-7.3-22.4-18.1l-120-120.1 31.4-48.6c.1-.2.3-.5.5-.6.3-.2.8-.1 1.2 0 7.2 2.2 14.9 1.8 21.9-1.1.4-.1.7-.2 1 0l.4.4L538.3 753ZM350.2 617l-27.5-27.5 54.4-23.2c.1-.1.3-.1.4-.1.5 0 .7.5 1 .9.5.8 1.1 1.7 1.7 2.5l.2.2c.2.2.1.5-.1.7L350.2 617Zm-39.8-39.8-34.9-34.9c-5.9-5.9-10.2-10.2-13.2-13.9l106 22c.1 0 .3 0 .4.1.7.1 1.4.2 1.4.8 0 .7-.8 1-1.5 1.2l-.3.1c.1.1-57.9 24.6-57.9 24.6Zm-54.1-66.6c.1-2.2.5-4.5 1.2-6.6 2-6.2 7.3-11.6 18.1-22.4l44.6-44.6c20.5 29.8 41.1 59.6 61.8 89.3.4.5.8 1 .3 1.4-1.9 2.1-3.9 4.5-5.3 7.1-.1.3-.4.6-.7.8-.2.1-.4.1-.6 0l-119.4-25Zm75.8-85.5 60-60c5.6 2.5 26.1 11.1 44.5 18.9 13.9 5.9 26.5 11.2 30.5 13 .4.2.8.3.9.7.1.2.1.5 0 .8-1.9 8.8.7 18 7 24.4.4.4 0 1-.3 1.5l-.2.3-60.9 94.3c-.2.3-.3.5-.6.7-.3.2-.8.1-1.1 0-2.4-.6-4.8-1-7.3-1-2.2 0-4.6.4-7 .8-.3 0-.5.1-.7-.1-.2-.2-.4-.4-.6-.7l-64.2-93.6Zm72.1-72.1 77.6-77.6c10.7-10.7 16.1-16.1 22.4-18.1 5.2-1.7 10.9-1.7 16.1 0 6.2 2 11.6 7.3 22.4 18.1l16.8 16.8-55.2 85.5c-.1.2-.3.5-.5.6-.3.2-.8.1-1.2 0-8.8-2.7-18.4-.8-25.6 4.9-.4.4-.9.2-1.3 0-7.4-3.1-63.5-26.8-71.5-30.2Zm167-49.1 51 51-12.3 76.1v.2c0 .2 0 .3-.1.5-.1.3-.4.3-.7.4-2.6.8-5.1 2-7.3 3.6-.1.1-.2.1-.3.2-.1.2-.3.3-.5.3s-.4 0-.6-.1l-77.7-33-.1-.1c-.5-.2-1.1-.4-1.1-.9-.5-4.3-1.9-8.5-4.1-12.2-.4-.6-.8-1.3-.5-1.9l54.3-84.1Zm-52.5 114.9 72.8 30.8c.4.2.8.4 1 .8.1.2.1.5 0 .8-.2 1.1-.4 2.3-.4 3.5v2c0 .5-.5.7-1 .9l-.1.1c-11.5 4.9-162 69.1-162.2 69.1-.2 0-.5 0-.7-.2-.4-.4 0-1 .4-1.5.1-.1.1-.2.2-.3l59.8-92.7.1-.2c.3-.6.7-1.2 1.4-1.2l.6.1c1.4.2 2.6.4 3.8.4 9.1 0 17.5-4.4 22.6-12 .1-.2.3-.4.5-.5.2-.2.8-.1 1.2.1Zm-83.4 122.7 164-69.9s.2 0 .5.2c.9.9 1.7 1.5 2.4 2.1l.4.2c.3.2.7.4.7.7v.3l-14 86.3-.1.3c-.1.7-.2 1.4-.8 1.4-7.6.5-14.5 4.7-18.3 11.3l-.1.1c-.2.3-.4.6-.7.8-.3.1-.6.1-.9 0l-130.8-27c-.3.1-2.2-6.8-2.3-6.8Z" fill="#fff"/></g><defs><clipPath id="a"><path fill="#fff" d="M0 0h1024v1024H0z"/></clipPath></defs></svg>

<svg width="1024" height="1024" viewBox="0 0 1024 1024" fill="none" xmlns="http://www.w3.org/2000/svg">
<g clip-path="url(#clip0_2_2907)">
<path d="M512 1024C794.77 1024 1024 794.77 1024 512C1024 229.23 794.77 0 512 0C229.23 0 0 229.23 0 512C0 794.77 229.23 1024 512 1024Z" fill="#96DFD3"/>
<path d="M626.9 433.7L626.7 433.6C626.6 433.6 626.5 433.5 626.4 433.4C626.1 433.1 626 432.6 626 432.2L636.3 369.1L684.7 417.5L634.4 438.9C634.3 439 634.1 439 634 439H633.8C633.7 439 633.7 438.9 633.5 438.8C631.7 436.7 629.4 435 626.9 433.7ZM697.1 429.8L748.9 481.6C759.6 492.4 765 497.7 767 504C767.3 504.9 767.5 505.8 767.7 506.8L644 454.3C643.9 454.3 643.9 454.2 643.8 454.2C643.3 454 642.7 453.8 642.7 453.3C642.7 452.8 643.3 452.6 643.8 452.4L644 452.3L697.1 429.8ZM765.6 523.3C762.9 528.3 757.7 533.5 748.9 542.4L690.5 600.7L615.1 585L614.7 584.9C614 584.8 613.3 584.7 613.3 584.1C612.7 577.8 609.6 572 604.6 568.2C604.3 567.9 604.4 567.4 604.5 567V566.8L618.7 479.7L618.8 479.4C618.9 478.7 619 478 619.6 478C625.7 477.2 631.3 474 635.1 469.1C635.2 469 635.3 468.8 635.5 468.7C635.9 468.5 636.4 468.7 636.9 468.9L765.6 523.3ZM677.1 614.2L581.1 710.2L597.5 609.3V609.2C597.5 609.1 597.5 608.9 597.6 608.8C597.7 608.5 598.1 608.3 598.4 608.2L598.6 608.1C602.2 606.6 605.4 604.2 607.9 601.2C608.2 600.8 608.6 600.5 609.1 600.4H609.5L677.1 614.2ZM560.9 730.4L550.1 741.2L430.5 568.4C430.5 568.3 430.4 568.3 430.4 568.2C430.2 567.9 430 567.7 430.1 567.4C430.1 567.2 430.2 567 430.4 566.8L430.5 566.6C430.9 566.1 431.2 565.5 431.5 565L431.8 564.5C432 564.2 432.2 563.9 432.5 563.7C432.8 563.6 433.2 563.6 433.5 563.7L566 591C566.4 591.1 566.7 591.2 567 591.4C567.2 591.6 567.2 591.8 567.3 592C569.2 599.1 574.3 604.9 581 607.7C581.4 607.9 581.2 608.3 581 608.7C580.9 608.9 580.8 609.1 580.8 609.3C579 619.6 564.7 706.9 560.9 730.4ZM538.3 753C530.3 760.9 525.6 765.1 520.3 766.8C515.1 768.5 509.4 768.5 504.2 766.8C498 764.8 492.6 759.5 481.8 748.7L361.8 628.6L393.2 580C393.3 579.8 393.5 579.5 393.7 579.4C394 579.2 394.5 579.3 394.9 579.4C402.1 581.6 409.8 581.2 416.8 578.3C417.2 578.2 417.5 578.1 417.8 578.3L418.2 578.7L538.3 753ZM350.2 617L322.7 589.5L377.1 566.3C377.2 566.2 377.4 566.2 377.5 566.2C378 566.2 378.2 566.7 378.5 567.1C379 567.9 379.6 568.8 380.2 569.6L380.4 569.8C380.6 570 380.5 570.3 380.3 570.5L350.2 617ZM310.4 577.2L275.5 542.3C269.6 536.4 265.3 532.1 262.3 528.4L368.3 550.4C368.4 550.4 368.6 550.4 368.7 550.5C369.4 550.6 370.1 550.7 370.1 551.3C370.1 552 369.3 552.3 368.6 552.5L368.3 552.6C368.4 552.7 310.4 577.2 310.4 577.2ZM256.3 510.6C256.4 508.4 256.8 506.1 257.5 504C259.5 497.8 264.8 492.4 275.6 481.6L320.2 437C340.7 466.8 361.3 496.6 382 526.3C382.4 526.8 382.8 527.3 382.3 527.7C380.4 529.8 378.4 532.2 377 534.8C376.9 535.1 376.6 535.4 376.3 535.6C376.1 535.7 375.9 535.7 375.7 535.6L256.3 510.6ZM332.1 425.1L392.1 365.1C397.7 367.6 418.2 376.2 436.6 384C450.5 389.9 463.1 395.2 467.1 397C467.5 397.2 467.9 397.3 468 397.7C468.1 397.9 468.1 398.2 468 398.5C466.1 407.3 468.7 416.5 475 422.9C475.4 423.3 475 423.9 474.7 424.4L474.5 424.7L413.6 519C413.4 519.3 413.3 519.5 413 519.7C412.7 519.9 412.2 519.8 411.9 519.7C409.5 519.1 407.1 518.7 404.6 518.7C402.4 518.7 400 519.1 397.6 519.5C397.3 519.5 397.1 519.6 396.9 519.4C396.7 519.2 396.5 519 396.3 518.7L332.1 425.1ZM404.2 353L481.8 275.4C492.5 264.7 497.9 259.3 504.2 257.3C509.4 255.6 515.1 255.6 520.3 257.3C526.5 259.3 531.9 264.6 542.7 275.4L559.5 292.2L504.3 377.7C504.2 377.9 504 378.2 503.8 378.3C503.5 378.5 503 378.4 502.6 378.3C493.8 375.6 484.2 377.5 477 383.2C476.6 383.6 476.1 383.4 475.7 383.2C468.3 380.1 412.2 356.4 404.2 353ZM571.2 303.9L622.2 354.9L609.9 431V431.2C609.9 431.4 609.9 431.5 609.8 431.7C609.7 432 609.4 432 609.1 432.1C606.5 432.9 604 434.1 601.8 435.7C601.7 435.8 601.6 435.8 601.5 435.9C601.4 436.1 601.2 436.2 601 436.2C600.8 436.2 600.6 436.2 600.4 436.1L522.7 403.1L522.6 403C522.1 402.8 521.5 402.6 521.5 402.1C521 397.8 519.6 393.6 517.4 389.9C517 389.3 516.6 388.6 516.9 388L571.2 303.9ZM518.7 418.8L591.5 449.6C591.9 449.8 592.3 450 592.5 450.4C592.6 450.6 592.6 450.9 592.5 451.2C592.3 452.3 592.1 453.5 592.1 454.7V456.7C592.1 457.2 591.6 457.4 591.1 457.6L591 457.7C579.5 462.6 429 526.8 428.8 526.8C428.6 526.8 428.3 526.8 428.1 526.6C427.7 526.2 428.1 525.6 428.5 525.1C428.6 525 428.6 524.9 428.7 524.8L488.5 432.1L488.6 431.9C488.9 431.3 489.3 430.7 490 430.7L490.6 430.8C492 431 493.2 431.2 494.4 431.2C503.5 431.2 511.9 426.8 517 419.2C517.1 419 517.3 418.8 517.5 418.7C517.7 418.5 518.3 418.6 518.7 418.8ZM435.3 541.5L599.3 471.6C599.3 471.6 599.5 471.6 599.8 471.8C600.7 472.7 601.5 473.3 602.2 473.9L602.6 474.1C602.9 474.3 603.3 474.5 603.3 474.8V475.1L589.3 561.4L589.2 561.7C589.1 562.4 589 563.1 588.4 563.1C580.8 563.6 573.9 567.8 570.1 574.4L570 574.5C569.8 574.8 569.6 575.1 569.3 575.3C569 575.4 568.7 575.4 568.4 575.3L437.6 548.3C437.3 548.4 435.4 541.5 435.3 541.5Z" fill="white"/>
</g>
<defs>
<clipPath id="clip0_2_2907">
<rect width="1024" height="1024" fill="white"/>
</clipPath>
</defs>
</svg>
